X: 1
T: Thornymore Woods
M: 6/8
L: 1/8
N: A song tune, recorded from Sam Bennett in 1933.
Z: Elaine Bradtke <ebflat4:randomnotes.org> tradtunes 2009-6-27
S: C 107.1
K: G
GFG BzG | FGA c3  | dzG G2G | AzG FED \
GGA BzG | GFA c3  | cBA B2c | d3  z2d ||
e2c B2c | dzg d2c | BdB GFG | AGE D2D \
G2A BAG | cde dzg | dcB AGF | G3  G2d |
e2c B2c | dzg d2c | BdB GFG | AGE D2D \
G2A BAG | cde dzg | dcB AGF | G3  G3  |]

